src/modules/75-ce/components/RecommendationHistogram/images/requestMarker.svg

<svg fill="none" height="214" viewBox="0 0 20 214" width="20" xmlns="http://www.w3.org/2000/svg"><path d="m10 0v205" stroke="#0278d5" stroke-width="2"/><g opacity=".6"><g stroke="#0278d5" stroke-linecap="round" stroke-linejoin="round"><path d="m17.5213 10.1483 1.4142-3.12173-1.4142-3.13484"/><path d="m14.9497 10.1483 1.4143-3.12173-1.4143-3.13484"/><path d="m3.12138 10.1483-1.67143-3.12173 1.67143-3.13484"/><path d="m5.69291 10.1483-1.67143-3.12173 1.67143-3.13484"/></g><path d="m10.0001 13.5v-12.959999" opacity=".45" stroke="#979797" stroke-linecap="square"/></g><path d="m5.66987 210.5 4.33013-7.5 4.3301 7.5z" fill="#0092e4" stroke="#0092e4"/></svg>

<svg width="20" height="214" viewBox="0 0 20 214" fill="none" xmlns="http://www.w3.org/2000/svg">
<path d="M10 0V205" stroke="#0278D5" stroke-width="2"/>
<g opacity="0.6">
<path d="M17.5213 10.1483L18.9355 7.02657L17.5213 3.89173" stroke="#0278D5" stroke-linecap="round" stroke-linejoin="round"/>
<path d="M14.9497 10.1483L16.364 7.02657L14.9497 3.89173" stroke="#0278D5" stroke-linecap="round" stroke-linejoin="round"/>
<path d="M3.12138 10.1483L1.44995 7.02657L3.12138 3.89173" stroke="#0278D5" stroke-linecap="round" stroke-linejoin="round"/>
<path d="M5.69291 10.1483L4.02148 7.02657L5.69291 3.89173" stroke="#0278D5" stroke-linecap="round" stroke-linejoin="round"/>
<path opacity="0.45" d="M10.0001 13.5L10.0001 0.540001" stroke="#979797" stroke-linecap="square"/>
</g>
<path d="M5.66987 210.5L10 203L14.3301 210.5H5.66987Z" fill="#0092E4" stroke="#0092E4"/>
</svg>
